X: 182
T: the Whim
%R: reel
M: 2/4	% Actually C|, but that's wrong.
L: 1/16
Z: 2014 John Chambers <jc:trillian.mit.edu>
B: Chas & Sam Thompson "Twenty Four Country Dances for the Year 1772", London 1772, p.91
F: http://folkopedia.efdss.org/images/8/89/Thompson_24_1772.PDF
K: A
|:\
A2AB cAAc | F2FG ECCE |\
A2AB cAAc | d2c2 B4 :|
|:\
E2EF EDCE | GFED CB,A,2 |\
ABcd eagf | edcB A4 :|
% - - - - - - - - - - - - - - - - - - - - - - - - -
%%begintext align
%% Right hands across quite round .|.
%% Left hands back again :|. cross over
%% half figure .|: Right & Left :|:
%%endtext
% - - - - - - - - - - - - - - - - - - - - - - - - -

%%sep 1 1 500
%%sep 1 1 500
